polar_resources/organized_assets/assets/airy-10-DeUAZh9q.xmp
<x:xmpmeta xmlns:x="adobe:ns:meta/" x:xmptk="Adobe XMP Core 7.0-c000 1.000000, 0000/00/00-00:00:00        ">
 <rdf:RDF xmlns:rdf="http://www.w3.org/1999/02/22-rdf-syntax-ns#">
  <rdf:Description rdf:about=""
    xmlns:crs="http://ns.adobe.com/camera-raw-settings/1.0/"
   crs:PresetType="Normal"
   crs:Cluster=""
   crs:UUID="9C6D316242754DC3A7E136519C315E9B"
   crs:SupportsAmount2="True"
   crs:SupportsAmount="True"
   crs:SupportsColor="True"
   crs:SupportsMonochrome="True"
   crs:SupportsHighDynamicRange="True"
   crs:SupportsNormalDynamicRange="True"
   crs:SupportsSceneReferred="True"
   crs:SupportsOutputReferred="True"
   crs:RequiresRGBTables="False"
   crs:CameraModelRestriction=""
   crs:Copyright=""
   crs:ContactInfo=""
   crs:Version="15.5"
   crs:ProcessVersion="15.4"
   crs:WhiteBalance="As Shot"
   crs:Exposure2012="0.00"
   crs:Contrast2012="-14"
   crs:Highlights2012="-10"
   crs:Shadows2012="0"
   crs:Whites2012="-8"
   crs:Blacks2012="0"
   crs:Texture="0"
   crs:Clarity2012="-8"
   crs:Dehaze="0"
   crs:Vibrance="-8"
   crs:Saturation="0"
   crs:ParametricShadows="+22"
   crs:ParametricDarks="+18"
   crs:ParametricLights="-23"
   crs:ParametricHighlights="-2"
   crs:ParametricShadowSplit="14"
   crs:ParametricMidtoneSplit="43"
   crs:ParametricHighlightSplit="75"
   crs:Sharpness="17"
   crs:SharpenRadius="+1.0"
   crs:SharpenDetail="25"
   crs:SharpenEdgeMasking="0"
   crs:LuminanceSmoothing="5"
   crs:LuminanceNoiseReductionDetail="50"
   crs:LuminanceNoiseReductionContrast="0"
   crs:ColorNoiseReduction="14"
   crs:ColorNoiseReductionDetail="50"
   crs:ColorNoiseReductionSmoothness="50"
   crs:HueAdjustmentRed="+1"
   crs:HueAdjustmentOrange="-2"
   crs:HueAdjustmentYellow="-38"
   crs:HueAdjustmentGreen="+56"
   crs:HueAdjustmentAqua="+5"
   crs:HueAdjustmentBlue="-8"
   crs:HueAdjustmentPurple="0"
   crs:HueAdjustmentMagenta="+1"
   crs:SaturationAdjustmentRed="+5"
   crs:SaturationAdjustmentOrange="0"
   crs:SaturationAdjustmentYellow="-41"
   crs:SaturationAdjustmentGreen="-30"
   crs:SaturationAdjustmentAqua="+5"
   crs:SaturationAdjustmentBlue="+9"
   crs:SaturationAdjustmentPurple="+8"
   crs:SaturationAdjustmentMagenta="+2"
   crs:LuminanceAdjustmentRed="-13"
   crs:LuminanceAdjustmentOrange="-19"
   crs:LuminanceAdjustmentYellow="+27"
   crs:LuminanceAdjustmentGreen="-8"
   crs:LuminanceAdjustmentAqua="-4"
   crs:LuminanceAdjustmentBlue="-5"
   crs:LuminanceAdjustmentPurple="+12"
   crs:LuminanceAdjustmentMagenta="+13"
   crs:SplitToningShadowHue="28"
   crs:SplitToningShadowSaturation="9"
   crs:SplitToningHighlightHue="223"
   crs:SplitToningHighlightSaturation="7"
   crs:SplitToningBalance="0"
   crs:ColorGradeMidtoneHue="0"
   crs:ColorGradeMidtoneSat="0"
   crs:ColorGradeShadowLum="0"
   crs:ColorGradeMidtoneLum="0"
   crs:ColorGradeHighlightLum="0"
   crs:ColorGradeBlending="100"
   crs:ColorGradeGlobalHue="0"
   crs:ColorGradeGlobalSat="0"
   crs:ColorGradeGlobalLum="0"
   crs:AutoLateralCA="0"
   crs:LensProfileEnable="0"
   crs:LensManualDistortionAmount="0"
   crs:VignetteAmount="0"
   crs:DefringePurpleAmount="0"
   crs:DefringePurpleHueLo="30"
   crs:DefringePurpleHueHi="70"
   crs:DefringeGreenAmount="0"
   crs:DefringeGreenHueLo="40"
   crs:DefringeGreenHueHi="60"
   crs:PerspectiveUpright="0"
   crs:PerspectiveVertical="0"
   crs:PerspectiveHorizontal="0"
   crs:PerspectiveRotate="0.0"
   crs:PerspectiveAspect="0"
   crs:PerspectiveScale="100"
   crs:PerspectiveX="0.00"
   crs:PerspectiveY="0.00"
   crs:GrainAmount="0"
   crs:PostCropVignetteAmount="0"
   crs:ShadowTint="0"
   crs:RedHue="+32"
   crs:RedSaturation="+2"
   crs:GreenHue="+98"
   crs:GreenSaturation="-11"
   crs:BlueHue="0"
   crs:BlueSaturation="-3"
   crs:CurveRefineSaturation="100"
   crs:OverrideLookVignette="False"
   crs:ToneCurveName2012="Custom"
   crs:HasSettings="True"
   crs:CropConstrainToWarp="0">
   <crs:Name>
    <rdf:Alt>
     <rdf:li xml:lang="x-default">airy-10</rdf:li>
    </rdf:Alt>
   </crs:Name>
   <crs:ShortName>
    <rdf:Alt>
     <rdf:li xml:lang="x-default"/>
    </rdf:Alt>
   </crs:ShortName>
   <crs:SortName>
    <rdf:Alt>
     <rdf:li xml:lang="x-default"/>
    </rdf:Alt>
   </crs:SortName>
   <crs:Group>
    <rdf:Alt>
     <rdf:li xml:lang="x-default">Airy</rdf:li>
    </rdf:Alt>
   </crs:Group>
   <crs:Description>
    <rdf:Alt>
     <rdf:li xml:lang="x-default"/>
    </rdf:Alt>
   </crs:Description>
   <crs:ToneCurvePV2012>
    <rdf:Seq>
     <rdf:li>0, 0</rdf:li>
     <rdf:li>77, 86</rdf:li>
     <rdf:li>188, 208</rdf:li>
     <rdf:li>255, 255</rdf:li>
    </rdf:Seq>
   </crs:ToneCurvePV2012>
   <crs:ToneCurvePV2012Red>
    <rdf:Seq>
     <rdf:li>0, 0</rdf:li>
     <rdf:li>30, 17</rdf:li>
     <rdf:li>59, 39</rdf:li>
     <rdf:li>118, 119</rdf:li>
     <rdf:li>184, 194</rdf:li>
     <rdf:li>255, 255</rdf:li>
    </rdf:Seq>
   </crs:ToneCurvePV2012Red>
   <crs:ToneCurvePV2012Green>
    <rdf:Seq>
     <rdf:li>0, 0</rdf:li>
     <rdf:li>60, 44</rdf:li>
     <rdf:li>118, 122</rdf:li>
     <rdf:li>183, 195</rdf:li>
     <rdf:li>255, 255</rdf:li>
    </rdf:Seq>
   </crs:ToneCurvePV2012Green>
   <crs:ToneCurvePV2012Blue>
    <rdf:Seq>
     <rdf:li>0, 0</rdf:li>
     <rdf:li>61, 50</rdf:li>
     <rdf:li>117, 122</rdf:li>
     <rdf:li>179, 192</rdf:li>
     <rdf:li>255, 255</rdf:li>
    </rdf:Seq>
   </crs:ToneCurvePV2012Blue>
   <crs:Look>
    <rdf:Description
     crs:Name="Adobe Color"
     crs:Amount="1"
     crs:UUID="B952C231111CD8E0ECCF14B86BAA7077"
     crs:SupportsAmount="false"
     crs:SupportsMonochrome="false"
     crs:SupportsOutputReferred="false"
     crs:Stubbed="true">
    <crs:Group>
     <rdf:Alt>
      <rdf:li xml:lang="x-default">Profiles</rdf:li>
     </rdf:Alt>
    </crs:Group>
    </rdf:Description>
   </crs:Look>
  </rdf:Description>
 </rdf:RDF>
</x:xmpmeta>
