polar_resources/organized_assets/assets/cream-7-B1VQPDqH.xmp
<x:xmpmeta xmlns:x="adobe:ns:meta/" x:xmptk="Adobe XMP Core 7.0-c000 1.000000, 0000/00/00-00:00:00        ">
 <rdf:RDF xmlns:rdf="http://www.w3.org/1999/02/22-rdf-syntax-ns#">
  <rdf:Description rdf:about=""
    xmlns:crs="http://ns.adobe.com/camera-raw-settings/1.0/"
   crs:PresetType="Normal"
   crs:Cluster=""
   crs:UUID="0ED2B6FB3B7C4C0EB4A256B5597A71D3"
   crs:SupportsAmount2="True"
   crs:SupportsAmount="True"
   crs:SupportsColor="True"
   crs:SupportsMonochrome="True"
   crs:SupportsHighDynamicRange="True"
   crs:SupportsNormalDynamicRange="True"
   crs:SupportsSceneReferred="True"
   crs:SupportsOutputReferred="True"
   crs:RequiresRGBTables="False"
   crs:CameraModelRestriction=""
   crs:Copyright=""
   crs:ContactInfo=""
   crs:Version="15.5.1"
   crs:ProcessVersion="15.4"
   crs:WhiteBalance="As Shot"
   crs:IncrementalTemperature="0"
   crs:IncrementalTint="0"
   crs:Exposure2012="0.00"
   crs:Contrast2012="0"
   crs:Highlights2012="-29"
   crs:Shadows2012="0"
   crs:Whites2012="-28"
   crs:Blacks2012="0"
   crs:Texture="0"
   crs:Clarity2012="0"
   crs:Dehaze="0"
   crs:Vibrance="0"
   crs:Saturation="0"
   crs:ParametricShadows="0"
   crs:ParametricDarks="+15"
   crs:ParametricLights="-4"
   crs:ParametricHighlights="0"
   crs:ParametricShadowSplit="25"
   crs:ParametricMidtoneSplit="50"
   crs:ParametricHighlightSplit="75"
   crs:Sharpness="26"
   crs:SharpenRadius="+1.0"
   crs:SharpenDetail="25"
   crs:SharpenEdgeMasking="0"
   crs:LuminanceSmoothing="11"
   crs:LuminanceNoiseReductionDetail="50"
   crs:LuminanceNoiseReductionContrast="0"
   crs:ColorNoiseReduction="0"
   crs:HueAdjustmentRed="+15"
   crs:HueAdjustmentOrange="0"
   crs:HueAdjustmentYellow="-4"
   crs:HueAdjustmentGreen="+22"
   crs:HueAdjustmentAqua="+4"
   crs:HueAdjustmentBlue="-11"
   crs:HueAdjustmentPurple="+7"
   crs:HueAdjustmentMagenta="+30"
   crs:SaturationAdjustmentRed="-11"
   crs:SaturationAdjustmentOrange="-19"
   crs:SaturationAdjustmentYellow="-37"
   crs:SaturationAdjustmentGreen="-48"
   crs:SaturationAdjustmentAqua="-33"
   crs:SaturationAdjustmentBlue="-15"
   crs:SaturationAdjustmentPurple="0"
   crs:SaturationAdjustmentMagenta="+7"
   crs:LuminanceAdjustmentRed="-11"
   crs:LuminanceAdjustmentOrange="-11"
   crs:LuminanceAdjustmentYellow="+22"
   crs:LuminanceAdjustmentGreen="+15"
   crs:LuminanceAdjustmentAqua="+11"
   crs:LuminanceAdjustmentBlue="+26"
   crs:LuminanceAdjustmentPurple="0"
   crs:LuminanceAdjustmentMagenta="+7"
   crs:SplitToningShadowHue="15"
   crs:SplitToningShadowSaturation="4"
   crs:SplitToningHighlightHue="355"
   crs:SplitToningHighlightSaturation="1"
   crs:SplitToningBalance="0"
   crs:ColorGradeMidtoneHue="0"
   crs:ColorGradeMidtoneSat="0"
   crs:ColorGradeShadowLum="0"
   crs:ColorGradeMidtoneLum="0"
   crs:ColorGradeHighlightLum="0"
   crs:ColorGradeBlending="100"
   crs:ColorGradeGlobalHue="0"
   crs:ColorGradeGlobalSat="0"
   crs:ColorGradeGlobalLum="0"
   crs:AutoLateralCA="0"
   crs:LensProfileEnable="0"
   crs:LensManualDistortionAmount="0"
   crs:VignetteAmount="0"
   crs:DefringePurpleAmount="0"
   crs:DefringePurpleHueLo="30"
   crs:DefringePurpleHueHi="70"
   crs:DefringeGreenAmount="0"
   crs:DefringeGreenHueLo="40"
   crs:DefringeGreenHueHi="60"
   crs:GrainAmount="0"
   crs:PostCropVignetteAmount="0"
   crs:ShadowTint="0"
   crs:RedHue="-13"
   crs:RedSaturation="-16"
   crs:GreenHue="0"
   crs:GreenSaturation="0"
   crs:BlueHue="-5"
   crs:BlueSaturation="-20"
   crs:CurveRefineSaturation="100"
   crs:ConvertToGrayscale="False"
   crs:OverrideLookVignette="False"
   crs:ToneCurveName2012="Custom"
   crs:CameraProfile="Default Color"
   crs:HasSettings="True">
   <crs:Name>
    <rdf:Alt>
     <rdf:li xml:lang="x-default">cream-7</rdf:li>
    </rdf:Alt>
   </crs:Name>
   <crs:ShortName>
    <rdf:Alt>
     <rdf:li xml:lang="x-default"/>
    </rdf:Alt>
   </crs:ShortName>
   <crs:SortName>
    <rdf:Alt>
     <rdf:li xml:lang="x-default"/>
    </rdf:Alt>
   </crs:SortName>
   <crs:Group>
    <rdf:Alt>
     <rdf:li xml:lang="x-default">Cream</rdf:li>
    </rdf:Alt>
   </crs:Group>
   <crs:Description>
    <rdf:Alt>
     <rdf:li xml:lang="x-default"/>
    </rdf:Alt>
   </crs:Description>
   <crs:ToneCurvePV2012>
    <rdf:Seq>
     <rdf:li>2, 21</rdf:li>
     <rdf:li>50, 61</rdf:li>
     <rdf:li>152, 162</rdf:li>
     <rdf:li>255, 239</rdf:li>
    </rdf:Seq>
   </crs:ToneCurvePV2012>
   <crs:ToneCurvePV2012Red>
    <rdf:Seq>
     <rdf:li>0, 0</rdf:li>
     <rdf:li>66, 43</rdf:li>
     <rdf:li>122, 124</rdf:li>
     <rdf:li>206, 212</rdf:li>
     <rdf:li>255, 255</rdf:li>
    </rdf:Seq>
   </crs:ToneCurvePV2012Red>
   <crs:ToneCurvePV2012Green>
    <rdf:Seq>
     <rdf:li>0, 0</rdf:li>
     <rdf:li>68, 44</rdf:li>
     <rdf:li>119, 120</rdf:li>
     <rdf:li>185, 195</rdf:li>
     <rdf:li>255, 255</rdf:li>
    </rdf:Seq>
   </crs:ToneCurvePV2012Green>
   <crs:ToneCurvePV2012Blue>
    <rdf:Seq>
     <rdf:li>0, 0</rdf:li>
     <rdf:li>59, 37</rdf:li>
     <rdf:li>115, 115</rdf:li>
     <rdf:li>198, 208</rdf:li>
     <rdf:li>255, 255</rdf:li>
    </rdf:Seq>
   </crs:ToneCurvePV2012Blue>
  </rdf:Description>
 </rdf:RDF>
</x:xmpmeta>
