polar_resources/organized_assets/assets/earth-8-CGJefbcm.xmp
<x:xmpmeta xmlns:x="adobe:ns:meta/" x:xmptk="Adobe XMP Core 7.0-c000 1.000000, 0000/00/00-00:00:00        ">
 <rdf:RDF xmlns:rdf="http://www.w3.org/1999/02/22-rdf-syntax-ns#">
  <rdf:Description rdf:about=""
    xmlns:crs="http://ns.adobe.com/camera-raw-settings/1.0/"
   crs:PresetType="Normal"
   crs:Cluster=""
   crs:UUID="60A3496C6F7B45C0918BFBE498167B5F"
   crs:SupportsAmount2="True"
   crs:SupportsAmount="True"
   crs:SupportsColor="True"
   crs:SupportsMonochrome="True"
   crs:SupportsHighDynamicRange="True"
   crs:SupportsNormalDynamicRange="True"
   crs:SupportsSceneReferred="True"
   crs:SupportsOutputReferred="True"
   crs:RequiresRGBTables="False"
   crs:CameraModelRestriction=""
   crs:Copyright=""
   crs:ContactInfo=""
   crs:Version="15.5"
   crs:ProcessVersion="15.4"
   crs:WhiteBalance="As Shot"
   crs:Exposure2012="0.00"
   crs:Contrast2012="+21"
   crs:Highlights2012="0"
   crs:Shadows2012="0"
   crs:Whites2012="0"
   crs:Blacks2012="0"
   crs:Texture="0"
   crs:Clarity2012="0"
   crs:Dehaze="0"
   crs:Vibrance="0"
   crs:Saturation="0"
   crs:ParametricShadows="0"
   crs:ParametricDarks="0"
   crs:ParametricLights="0"
   crs:ParametricHighlights="0"
   crs:ParametricShadowSplit="25"
   crs:ParametricMidtoneSplit="50"
   crs:ParametricHighlightSplit="75"
   crs:Sharpness="11"
   crs:SharpenRadius="+0.8"
   crs:SharpenDetail="30"
   crs:SharpenEdgeMasking="60"
   crs:LuminanceSmoothing="0"
   crs:ColorNoiseReduction="11"
   crs:ColorNoiseReductionDetail="50"
   crs:ColorNoiseReductionSmoothness="50"
   crs:HueAdjustmentRed="+2"
   crs:HueAdjustmentOrange="0"
   crs:HueAdjustmentYellow="-6"
   crs:HueAdjustmentGreen="-6"
   crs:HueAdjustmentAqua="0"
   crs:HueAdjustmentBlue="0"
   crs:HueAdjustmentPurple="0"
   crs:HueAdjustmentMagenta="0"
   crs:SaturationAdjustmentRed="-10"
   crs:SaturationAdjustmentOrange="-9"
   crs:SaturationAdjustmentYellow="-32"
   crs:SaturationAdjustmentGreen="-28"
   crs:SaturationAdjustmentAqua="-11"
   crs:SaturationAdjustmentBlue="-13"
   crs:SaturationAdjustmentPurple="-13"
   crs:SaturationAdjustmentMagenta="-13"
   crs:LuminanceAdjustmentRed="0"
   crs:LuminanceAdjustmentOrange="+1"
   crs:LuminanceAdjustmentYellow="-1"
   crs:LuminanceAdjustmentGreen="-3"
   crs:LuminanceAdjustmentAqua="-1"
   crs:LuminanceAdjustmentBlue="-2"
   crs:LuminanceAdjustmentPurple="-2"
   crs:LuminanceAdjustmentMagenta="-1"
   crs:SplitToningShadowHue="0"
   crs:SplitToningShadowSaturation="0"
   crs:SplitToningHighlightHue="0"
   crs:SplitToningHighlightSaturation="0"
   crs:SplitToningBalance="0"
   crs:ColorGradeMidtoneHue="0"
   crs:ColorGradeMidtoneSat="0"
   crs:ColorGradeShadowLum="0"
   crs:ColorGradeMidtoneLum="0"
   crs:ColorGradeHighlightLum="0"
   crs:ColorGradeBlending="50"
   crs:ColorGradeGlobalHue="0"
   crs:ColorGradeGlobalSat="0"
   crs:ColorGradeGlobalLum="0"
   crs:AutoLateralCA="0"
   crs:LensProfileEnable="0"
   crs:LensManualDistortionAmount="0"
   crs:VignetteAmount="0"
   crs:DefringePurpleAmount="0"
   crs:DefringePurpleHueLo="30"
   crs:DefringePurpleHueHi="70"
   crs:DefringeGreenAmount="0"
   crs:DefringeGreenHueLo="40"
   crs:DefringeGreenHueHi="60"
   crs:PerspectiveUpright="0"
   crs:PerspectiveVertical="0"
   crs:PerspectiveHorizontal="0"
   crs:PerspectiveRotate="0.0"
   crs:PerspectiveAspect="0"
   crs:PerspectiveScale="100"
   crs:PerspectiveX="0.00"
   crs:PerspectiveY="0.00"
   crs:GrainAmount="4"
   crs:GrainSize="15"
   crs:GrainFrequency="100"
   crs:PostCropVignetteAmount="0"
   crs:ShadowTint="+2"
   crs:RedHue="-2"
   crs:RedSaturation="0"
   crs:GreenHue="0"
   crs:GreenSaturation="+45"
   crs:BlueHue="0"
   crs:BlueSaturation="-40"
   crs:OverrideLookVignette="True"
   crs:ToneCurveName2012="Linear"
   crs:HasSettings="True"
   crs:CropConstrainToWarp="0">
   <crs:Name>
    <rdf:Alt>
     <rdf:li xml:lang="x-default">earth-8</rdf:li>
    </rdf:Alt>
   </crs:Name>
   <crs:ShortName>
    <rdf:Alt>
     <rdf:li xml:lang="x-default"/>
    </rdf:Alt>
   </crs:ShortName>
   <crs:SortName>
    <rdf:Alt>
     <rdf:li xml:lang="x-default"/>
    </rdf:Alt>
   </crs:SortName>
   <crs:Group>
    <rdf:Alt>
     <rdf:li xml:lang="x-default">Earth</rdf:li>
    </rdf:Alt>
   </crs:Group>
   <crs:Description>
    <rdf:Alt>
     <rdf:li xml:lang="x-default"/>
    </rdf:Alt>
   </crs:Description>
   <crs:ToneCurvePV2012>
    <rdf:Seq>
     <rdf:li>0, 0</rdf:li>
     <rdf:li>255, 255</rdf:li>
    </rdf:Seq>
   </crs:ToneCurvePV2012>
   <crs:ToneCurvePV2012Red>
    <rdf:Seq>
     <rdf:li>0, 0</rdf:li>
     <rdf:li>255, 255</rdf:li>
    </rdf:Seq>
   </crs:ToneCurvePV2012Red>
   <crs:ToneCurvePV2012Green>
    <rdf:Seq>
     <rdf:li>0, 0</rdf:li>
     <rdf:li>255, 255</rdf:li>
    </rdf:Seq>
   </crs:ToneCurvePV2012Green>
   <crs:ToneCurvePV2012Blue>
    <rdf:Seq>
     <rdf:li>0, 0</rdf:li>
     <rdf:li>255, 255</rdf:li>
    </rdf:Seq>
   </crs:ToneCurvePV2012Blue>
   <crs:Look>
    <rdf:Description
     crs:Name="Adobe Color"
     crs:Amount="1"
     crs:UUID="B952C231111CD8E0ECCF14B86BAA7077"
     crs:SupportsAmount="false"
     crs:SupportsMonochrome="false"
     crs:SupportsOutputReferred="false"
     crs:Stubbed="true">
    <crs:Group>
     <rdf:Alt>
      <rdf:li xml:lang="x-default">Profiles</rdf:li>
     </rdf:Alt>
    </crs:Group>
    </rdf:Description>
   </crs:Look>
  </rdf:Description>
 </rdf:RDF>
</x:xmpmeta>
