polar_resources/organized_assets/assets/earth-7-DDdOhh9z.xmp
<x:xmpmeta xmlns:x="adobe:ns:meta/" x:xmptk="Adobe XMP Core 7.0-c000 1.000000, 0000/00/00-00:00:00        ">
 <rdf:RDF xmlns:rdf="http://www.w3.org/1999/02/22-rdf-syntax-ns#">
  <rdf:Description rdf:about=""
    xmlns:crs="http://ns.adobe.com/camera-raw-settings/1.0/"
   crs:PresetType="Normal"
   crs:Cluster=""
   crs:UUID="FD228E05A9F0485FB5BEBEDFD1B7AB63"
   crs:SupportsAmount2="True"
   crs:SupportsAmount="True"
   crs:SupportsColor="True"
   crs:SupportsMonochrome="True"
   crs:SupportsHighDynamicRange="True"
   crs:SupportsNormalDynamicRange="True"
   crs:SupportsSceneReferred="True"
   crs:SupportsOutputReferred="True"
   crs:RequiresRGBTables="False"
   crs:CameraModelRestriction=""
   crs:Copyright=""
   crs:ContactInfo=""
   crs:Version="15.5"
   crs:ProcessVersion="15.4"
   crs:WhiteBalance="As Shot"
   crs:Exposure2012="0.00"
   crs:Contrast2012="+11"
   crs:Highlights2012="-12"
   crs:Shadows2012="+18"
   crs:Whites2012="-5"
   crs:Blacks2012="+2"
   crs:Texture="0"
   crs:Clarity2012="-3"
   crs:Dehaze="-5"
   crs:Vibrance="0"
   crs:Saturation="-4"
   crs:ParametricShadows="+1"
   crs:ParametricDarks="0"
   crs:ParametricLights="-4"
   crs:ParametricHighlights="+5"
   crs:ParametricShadowSplit="25"
   crs:ParametricMidtoneSplit="50"
   crs:ParametricHighlightSplit="75"
   crs:Sharpness="0"
   crs:LuminanceSmoothing="0"
   crs:ColorNoiseReduction="4"
   crs:ColorNoiseReductionDetail="50"
   crs:ColorNoiseReductionSmoothness="50"
   crs:HueAdjustmentRed="+1"
   crs:HueAdjustmentOrange="0"
   crs:HueAdjustmentYellow="-8"
   crs:HueAdjustmentGreen="0"
   crs:HueAdjustmentAqua="+9"
   crs:HueAdjustmentBlue="+1"
   crs:HueAdjustmentPurple="+3"
   crs:HueAdjustmentMagenta="+5"
   crs:SaturationAdjustmentRed="-2"
   crs:SaturationAdjustmentOrange="-23"
   crs:SaturationAdjustmentYellow="-22"
   crs:SaturationAdjustmentGreen="-3"
   crs:SaturationAdjustmentAqua="-1"
   crs:SaturationAdjustmentBlue="0"
   crs:SaturationAdjustmentPurple="-7"
   crs:SaturationAdjustmentMagenta="-6"
   crs:LuminanceAdjustmentRed="-1"
   crs:LuminanceAdjustmentOrange="+11"
   crs:LuminanceAdjustmentYellow="+2"
   crs:LuminanceAdjustmentGreen="0"
   crs:LuminanceAdjustmentAqua="+6"
   crs:LuminanceAdjustmentBlue="+1"
   crs:LuminanceAdjustmentPurple="+3"
   crs:LuminanceAdjustmentMagenta="+2"
   crs:SplitToningShadowHue="0"
   crs:SplitToningShadowSaturation="0"
   crs:SplitToningHighlightHue="0"
   crs:SplitToningHighlightSaturation="0"
   crs:SplitToningBalance="0"
   crs:ColorGradeMidtoneHue="0"
   crs:ColorGradeMidtoneSat="0"
   crs:ColorGradeShadowLum="0"
   crs:ColorGradeMidtoneLum="0"
   crs:ColorGradeHighlightLum="0"
   crs:ColorGradeBlending="50"
   crs:ColorGradeGlobalHue="0"
   crs:ColorGradeGlobalSat="0"
   crs:ColorGradeGlobalLum="0"
   crs:AutoLateralCA="0"
   crs:LensProfileEnable="0"
   crs:LensManualDistortionAmount="0"
   crs:VignetteAmount="0"
   crs:DefringePurpleAmount="0"
   crs:DefringePurpleHueLo="30"
   crs:DefringePurpleHueHi="70"
   crs:DefringeGreenAmount="0"
   crs:DefringeGreenHueLo="40"
   crs:DefringeGreenHueHi="60"
   crs:PerspectiveUpright="0"
   crs:PerspectiveVertical="0"
   crs:PerspectiveHorizontal="0"
   crs:PerspectiveRotate="0.0"
   crs:PerspectiveAspect="0"
   crs:PerspectiveScale="100"
   crs:PerspectiveX="0.00"
   crs:PerspectiveY="0.00"
   crs:GrainAmount="0"
   crs:PostCropVignetteAmount="0"
   crs:ShadowTint="0"
   crs:RedHue="+30"
   crs:RedSaturation="+5"
   crs:GreenHue="+55"
   crs:GreenSaturation="+5"
   crs:BlueHue="-26"
   crs:BlueSaturation="-10"
   crs:CurveRefineSaturation="100"
   crs:OverrideLookVignette="False"
   crs:ToneCurveName2012="Custom"
   crs:HasSettings="True"
   crs:CropConstrainToWarp="0">
   <crs:Name>
    <rdf:Alt>
     <rdf:li xml:lang="x-default">earth-7</rdf:li>
    </rdf:Alt>
   </crs:Name>
   <crs:ShortName>
    <rdf:Alt>
     <rdf:li xml:lang="x-default"/>
    </rdf:Alt>
   </crs:ShortName>
   <crs:SortName>
    <rdf:Alt>
     <rdf:li xml:lang="x-default"/>
    </rdf:Alt>
   </crs:SortName>
   <crs:Group>
    <rdf:Alt>
     <rdf:li xml:lang="x-default">Earth</rdf:li>
    </rdf:Alt>
   </crs:Group>
   <crs:Description>
    <rdf:Alt>
     <rdf:li xml:lang="x-default"/>
    </rdf:Alt>
   </crs:Description>
   <crs:ToneCurvePV2012>
    <rdf:Seq>
     <rdf:li>0, 0</rdf:li>
     <rdf:li>45, 47</rdf:li>
     <rdf:li>132, 133</rdf:li>
     <rdf:li>206, 204</rdf:li>
     <rdf:li>255, 255</rdf:li>
    </rdf:Seq>
   </crs:ToneCurvePV2012>
   <crs:ToneCurvePV2012Red>
    <rdf:Seq>
     <rdf:li>0, 0</rdf:li>
     <rdf:li>44, 39</rdf:li>
     <rdf:li>70, 65</rdf:li>
     <rdf:li>96, 95</rdf:li>
     <rdf:li>149, 154</rdf:li>
     <rdf:li>191, 196</rdf:li>
     <rdf:li>255, 255</rdf:li>
    </rdf:Seq>
   </crs:ToneCurvePV2012Red>
   <crs:ToneCurvePV2012Green>
    <rdf:Seq>
     <rdf:li>0, 0</rdf:li>
     <rdf:li>28, 25</rdf:li>
     <rdf:li>61, 57</rdf:li>
     <rdf:li>92, 90</rdf:li>
     <rdf:li>149, 154</rdf:li>
     <rdf:li>189, 194</rdf:li>
     <rdf:li>255, 255</rdf:li>
    </rdf:Seq>
   </crs:ToneCurvePV2012Green>
   <crs:ToneCurvePV2012Blue>
    <rdf:Seq>
     <rdf:li>0, 0</rdf:li>
     <rdf:li>24, 22</rdf:li>
     <rdf:li>93, 91</rdf:li>
     <rdf:li>148, 153</rdf:li>
     <rdf:li>198, 202</rdf:li>
     <rdf:li>255, 255</rdf:li>
    </rdf:Seq>
   </crs:ToneCurvePV2012Blue>
   <crs:Look>
    <rdf:Description
     crs:Name="Adobe Color"
     crs:Amount="1"
     crs:UUID="B952C231111CD8E0ECCF14B86BAA7077"
     crs:SupportsAmount="false"
     crs:SupportsMonochrome="false"
     crs:SupportsOutputReferred="false"
     crs:Stubbed="true">
    <crs:Group>
     <rdf:Alt>
      <rdf:li xml:lang="x-default">Profiles</rdf:li>
     </rdf:Alt>
    </crs:Group>
    </rdf:Description>
   </crs:Look>
  </rdf:Description>
 </rdf:RDF>
</x:xmpmeta>
